OCIO/LUTs/sRGB_OETF.spi1d
Version 1
From 0.0000000 1.0000000
Length 4096
Components 1
{
0.0000000000
0.0031550672
0.0063101343
0.0094652015
0.0126202686
0.0157753358
0.0189304029
0.0220854701
0.0252405372
0.0283956044
0.0315506716
0.0347057387
0.0378608059
0.0410040886
0.0440147770
0.0469024651
0.0496799062
0.0523578279
0.0549453525
0.0574503123
0.0598794895
0.0622388019
0.0645334485
0.0667680255
0.0689466185
0.0710728786
0.0731500836
0.0751811890
0.0771688705
0.0791155591
0.0810234716
0.0828946355
0.0847309107
0.0865340086
0.0883055073
0.0900468664
0.0917594383
0.0934444792
0.0951031584
0.0967365662
0.0983457210
0.0999315761
0.1014950252
0.1030369072
0.1045580110
0.1060590796
0.1075408134
0.1090038738
0.1104488861
0.1118764422
0.1132871029
0.1146814000
0.1160598389
0.1174228997
0.1187710393
0.1201046931
0.1214242758
0.1227301832
0.1240227934
0.1253024675
0.1265695511
0.1278243747
0.1290672551
0.1302984960
0.1315183885
0.1327272122
0.1339252353
0.1351127161
0.1362899025
0.1374570331
0.1386143379
0.1397620382
0.1409003472
0.1420294706
0.1431496070
0.1442609478
0.1453636781
0.1464579766
0.1475440159
0.1486219631
0.1496919799
0.1507542225
0.1518088425
0.1528559865
0.1538957966
0.1549284107
0.1559539622
0.1569725808
0.1579843922
0.1589895185
0.1599880783
0.1609801867
0.1619659556
0.1629454938
0.1639189070
0.1648862980
0.1658477670
0.1668034114
0.1677533258
0.1686976027
0.1696363318
0.1705696009
0.1714974952
0.1724200980
0.1733374904
0.1742497514
0.1751569582
0.1760591862
0.1769565088
0.1778489977
0.1787367230
0.1796197530
0.1804981546
0.1813719929
0.1822413319
0.1831062337
0.1839667594
0.1848229686
0.1856749195
0.1865226690
0.1873662731
0.1882057861
0.1890412616
0.1898727519
0.1907003080
0.1915239802
0.1923438174
0.1931598678
0.1939721785
0.1947807957
0.1955857645
0.1963871293
0.1971849336
0.1979792200
0.1987700302
0.1995574053
0.2003413855
0.2011220102
0.2018993181
0.2026733471
0.2034441346
0.2042117171
0.2049761306
0.2057374103
0.2064955908
0.2072507062
0.2080027898
0.2087518745
0.2094979925
0.2102411755
0.2109814546
0.2117188603
0.2124534229
0.2131851718
0.2139141360
0.2146403443
0.2153638246
0.2160846046
0.2168027115
0.2175181721
0.2182310125
0.2189412588
0.2196489364
0.2203540703
0.2210566852
0.2217568054
0.2224544547
0.2231496568
0.2238424347
0.2245328113
0.2252208091
0.2259064501
0.2265897561
0.2272707486
0.2279494488
0.2286258774
0.2293000550
0.2299720018
0.2306417377
0.2313092823
0.2319746551
0.2326378750
0.2332989609
0.2339579313
0.2346148045
0.2352695985
0.2359223311
0.2365730198
0.2372216818
0.2378683343
0.2385129940
0.2391556775
0.2397964011
0.2404351811
0.2410720333
0.2417069734
0.2423400169
0.2429711792
0.2436004753
0.2442279202
0.2448535284
0.2454773147
0.2460992932
0.2467194781
0.2473378835
0.2479545231
0.2485694105
0.2491825591
0.2497939823
0.2504036932
0.2510117047
0.2516180296
0.2522226806
0.2528256701
0.2534270105
0.2540267139
0.2546247924
0.2552212579
0.2558161222
0.2564093968
0.2570010932
0.2575912229
0.2581797969
0.2587668264
0.2593523223
0.2599362955
0.2605187566
0.2610997162
0.2616791848
0.2622571728
0.2628336903
0.2634087475
0.2639823543
0.2645545207
0.2651252564
0.2656945711
0.2662624744
0.2668289757
0.2673940843
0.2679578095
0.2685201606
0.2690811464
0.2696407761
0.2701990584
0.2707560021
0.2713116159
0.2718659084
0.2724188881
0.2729705633
0.2735209425
0.2740700337
0.2746178453
0.2751643852
0.2757096614
0.2762536818
0.2767964542
0.2773379865
0.2778782862
0.2784173609
0.2789552181
0.2794918653
0.2800273099
0.2805615590
0.2810946200
0.2816265000
0.2821572060
0.2826867451
0.2832151242
0.2837423501
0.2842684298
0.2847933698
0.2853171770
0.2858398578
0.2863614189
0.2868818667
0.2874012077
0.2879194483
0.2884365946
0.2889526531
0.2894676298
0.2899815309
0.2904943626
0.2910061307
0.2915168413
0.2920265003
0.2925351135
0.2930426867
0.2935492258
0.2940547363
0.2945592240
0.2950626944
0.2955651531
0.2960666056
0.2965670574
0.2970665137
0.2975649801
0.2980624618
0.2985589640
0.2990544920
0.2995490510
0.3000426460
0.3005352822
0.3010269646
0.3015176983
0.3020074880
0.3024963388
0.3029842556
0.3034712431
0.3039573061
0.3044424495
0.3049266779
0.3054099959
0.3058924082
0.3063739194
0.3068545341
0.3073342567
0.3078130918
0.3082910438
0.3087681171
0.3092443160
0.3097196449
0.3101941082
0.3106677100
0.3111404546
0.3116123462
0.3120833890
0.3125535870
0.3130229445
0.3134914654
0.3139591538
0.3144260137
0.3148920491
0.3153572639
0.3158216620
0.3162852473
0.3167480237
0.3172099949
0.3176711648
0.3181315371
0.3185911156
0.3190499039
0.3195079058
0.3199651248
0.3204215647
0.3208772290
0.3213321212
0.3217862449
0.3222396037
0.3226922009
0.3231440402
0.3235951248
0.3240454583
0.3244950439
0.3249438852
0.3253919853
0.3258393476
0.3262859755
0.3267318721
0.3271770407
0.3276214845
0.3280652067
0.3285082106
0.3289504991
0.3293920755
0.3298329429
0.3302731044
0.3307125629
0.3311513216
0.3315893834
0.3320267514
0.3324634286
0.3328994178
0.3333347220
0.3337693442
0.3342032872
0.3346365539
0.3350691472
0.3355010698
0.3359323247
0.3363629145
0.3367928421
0.3372221102
0.3376507216
0.3380786790
0.3385059851
0.3389326426
0.3393586541
0.3397840222
0.3402087497
0.3406328391
0.3410562931
0.3414791141
0.3419013048
0.3423228678
0.3427438054
0.3431641203
0.3435838149
0.3440028918
0.3444213533
0.3448392020
0.3452564402
0.3456730703
0.3460890949
0.3465045162
0.3469193366
0.3473335585
0.3477471842
0.3481602161
0.3485726563
0.3489845074
0.3493957714
0.3498064508
0.3502165476
0.3506260643
0.3510350029
0.3514433657
0.3518511549
0.3522583728
0.3526650213
0.3530711028
0.3534766193
0.3538815730
0.3542859659
0.3546898003
0.3550930781
0.3554958015
0.3558979726
0.3562995933
0.3567006657
0.3571011918
0.3575011737
0.3579006133
0.3582995127
0.3586978739
0.3590956987
0.3594929891
0.3598897472
0.3602859748
0.3606816738
0.3610768462
0.3614714938
0.3618656186
0.3622592223
0.3626523070
0.3630448744
0.3634369264
0.3638284648
0.3642194914
0.3646100080
0.3650000166
0.3653895187
0.3657785163
0.3661670110
0.3665550047
0.3669424991
0.3673294959
0.3677159969
0.3681020038
0.3684875183
0.3688725420
0.3692570768
0.3696411243
0.3700246861
0.3704077639
0.3707903593
0.3711724741
0.3715541098
0.3719352681
0.3723159506
0.3726961589
0.3730758946
0.3734551592
0.3738339545
0.3742122818
0.3745901429
0.3749675393
0.3753444725
0.3757209440
0.3760969554
0.3764725082
0.3768476040
0.3772222441
0.3775964303
0.3779701638
0.3783434462
0.3787162790
0.3790886637
0.3794606016
0.3798320943
0.3802031433
0.3805737498
0.3809439154
0.3813136415
0.3816829295
0.3820517808
0.3824201968
0.3827881789
0.3831557285
0.3835228469
0.3838895356
0.3842557958
0.3846216290
0.3849870365
0.3853520196
0.3857165797
0.3860807181
0.3864444361
0.3868077351
0.3871706163
0.3875330810
0.3878951306
0.3882567663
0.3886179894
0.3889788012
0.3893392030
0.3896991959
0.3900587814
0.3904179605
0.3907767347
0.3911351050
0.3914930727
0.3918506392
0.3922078055
0.3925645728
0.3929209425
0.3932769157
0.3936324936
0.3939876773
0.3943424682
0.3946968672
0.3950508757
0.3954044948
0.3957577256
0.3961105693
0.3964630271
0.3968151000
0.3971667893
0.3975180960
0.3978690213
0.3982195664
0.3985697322
0.3989195200
0.3992689309
0.3996179658
0.3999666261
0.4003149126
0.4006628266
0.4010103691
0.4013575411
0.4017043438
0.4020507782
0.4023968453
0.4027425463
0.4030878821
0.4034328539
0.4037774626
0.4041217093
0.4044655950
0.4048091207
0.4051522876
0.4054950965
0.4058375485
0.4061796445
0.4065213857
0.4068627730
0.4072038074
0.4075444899
0.4078848214
0.4082248030
0.4085644356
0.4089037202
0.4092426577
0.4095812492
0.4099194956
0.4102573977
0.4105949567
0.4109321733
0.4112690487
0.4116055836
0.4119417791
0.4122776360
0.4126131553
0.4129483379
0.4132831847
0.4136176967
0.4139518746
0.4142857196
0.4146192323
0.4149524138
0.4152852650
0.4156177866
0.4159499796
0.4162818450
0.4166133834
0.4169445959
0.4172754833
0.4176060465
0.4179362862
0.4182662035
0.4185957991
0.4189250738
0.4192540286
0.4195826643
0.4199109817
0.4202389816
0.4205666649
0.4208940323
0.4212210849
0.4215478232
0.4218742483
0.4222003608
0.4225261616
0.4228516515
0.4231768313
0.4235017018
0.4238262639
0.4241505182
0.4244744656
0.4247981069
0.4251214428
0.4254444742
0.4257672018
0.4260896263
0.4264117487
0.4267335695
0.4270550897
0.4273763099
0.4276972309
0.4280178535
0.4283381785
0.4286582064
0.4289779382
0.4292973746
0.4296165162
0.4299353639
0.4302539184
0.4305721803
0.4308901505
0.4312078297
0.4315252185
0.4318423177
0.4321591280
0.4324756501
0.4327918848
0.4331078327
0.4334234945
0.4337388710
0.4340539628
0.4343687707
0.4346832953
0.4349975374
0.4353114975
0.4356251765
0.4359385749
0.4362516935
0.4365645330
0.4368770939
0.4371893771
0.4375013831
0.4378131126
0.4381245663
0.4384357448
0.4387466489
0.4390572791
0.4393676361
0.4396777206
0.4399875332
0.4402970746
0.4406063454
0.4409153462
0.4412240777
0.4415325405
0.4418407353
0.4421486627
0.4424563233
0.4427637177
0.4430708466
0.4433777106
0.4436843103
0.4439906463
0.4442967192
0.4446025297
0.4449080784
0.4452133658
0.4455183926
0.4458231593
0.4461276667
0.4464319152
0.4467359055
0.4470396382
0.4473431138
0.4476463329
0.4479492962
0.4482520042
0.4485544576
0.4488566568
0.4491586024
0.4494602951
0.4497617354
0.4500629239
0.4503638612
0.4506645478
0.4509649842
0.4512651712
0.4515651091
0.4518647986
0.4521642403
0.4524634346
0.4527623822
0.4530610835
0.4533595392
0.4536577498
0.4539557159
0.4542534379
0.4545509164
0.4548481520
0.4551451452
0.4554418965
0.4557384065
0.4560346757
0.4563307047
0.4566264939
0.4569220438
0.4572173551
0.4575124282
0.4578072637
0.4581018621
0.4583962238
0.4586903494
0.4589842395
0.4592778944
0.4595713149
0.4598645012
0.4601574540
0.4604501738
0.4607426610
0.4610349162
0.4613269399
0.4616187325
0.4619102945
0.4622016265
0.4624927289
0.4627836023
0.4630742471
0.4633646637
0.4636548528
0.4639448147
0.4642345500
0.4645240592
0.4648133426
0.4651024008
0.4653912343
0.4656798435
0.4659682290
0.4662563911
0.4665443304
0.4668320472
0.4671195422
0.4674068157
0.4676938682
0.4679807002
0.4682673121
0.4685537044
0.4688398776
0.4691258320
0.4694115682
0.4696970866
0.4699823876
0.4702674718
0.4705523395
0.4708369912
0.4711214273
0.4714056483
0.4716896546
0.4719734467
0.4722570249
0.4725403899
0.4728235418
0.4731064813
0.4733892087
0.4736717245
0.4739540291
0.4742361229
0.4745180063
0.4747996799
0.4750811439
0.4753623989
0.4756434451
0.4759242832
0.4762049134
0.4764853363
0.4767655521
0.4770455614
0.4773253645
0.4776049619
0.4778843539
0.4781635410
0.4784425236
0.4787213020
0.4789998768
0.4792782482
0.4795564167
0.4798343828
0.4801121467
0.4803897089
0.4806670698
0.4809442298
0.4812211893
0.4814979487
0.4817745083
0.4820508686
0.4823270299
0.4826029926
0.4828787572
0.4831543240
0.4834296934
0.4837048657
0.4839798415
0.4842546209
0.4845292045
0.4848035926
0.4850777855
0.4853517837
0.4856255875
0.4858991973
0.4861726135
0.4864458365
0.4867188665
0.4869917040
0.4872643494
0.4875368030
0.4878090652
0.4880811363
0.4883530168
0.4886247069
0.4888962071
0.4891675176
0.4894386389
0.4897095713
0.4899803152
0.4902508709
0.4905212388
0.4907914192
0.4910614126
0.4913312191
0.4916008392
0.4918702733
0.4921395216
0.4924085846
0.4926774626
0.4929461559
0.4932146648
0.4934829898
0.4937511311
0.4940190891
0.4942868641
0.4945544565
0.4948218666
0.4950890948
0.4953561413
0.4956230065
0.4958896908
0.4961561945
0.4964225179
0.4966886613
0.4969546251
0.4972204096
0.4974860151
0.4977514420
0.4980166906
0.4982817612
0.4985466541
0.4988113696
0.4990759082
0.4993402700
0.4996044554
0.4998684648
0.5001322985
0.5003959567
0.5006594398
0.5009227480
0.5011858819
0.5014488415
0.5017116273
0.5019742395
0.5022366785
0.5024989446
0.5027610380
0.5030229592
0.5032847083
0.5035462858
0.5038076919
0.5040689268
0.5043299910
0.5045908847
0.5048516083
0.5051121619
0.5053725460
0.5056327608
0.5058928067
0.5061526838
0.5064123926
0.5066719333
0.5069313062
0.5071905115
0.5074495497
0.5077084210
0.5079671256
0.5082256639
0.5084840362
0.5087422427
0.5090002838
0.5092581597
0.5095158706
0.5097734170
0.5100307991
0.5102880171
0.5105450714
0.5108019622
0.5110586898
0.5113152545
0.5115716566
0.5118278964
0.5120839741
0.5123398900
0.5125956443
0.5128512375
0.5131066697
0.5133619412
0.5136170522
0.5138720032
0.5141267943
0.5143814258
0.5146358979
0.5148902110
0.5151443654
0.5153983612
0.5156521988
0.5159058783
0.5161594002
0.5164127647
0.5166659719
0.5169190222
0.5171719159
0.5174246532
0.5176772344
0.5179296597
0.5181819294
0.5184340437
0.5186860030
0.5189378074
0.5191894573
0.5194409529
0.5196922944
0.5199434821
0.5201945162
0.5204453971
0.5206961249
0.5209467000
0.5211971225
0.5214473927
0.5216975109
0.5219474773
0.5221972922
0.5224469559
0.5226964685
0.5229458303
0.5231950416
0.5234441025
0.5236930135
0.5239417746
0.5241903862
0.5244388485
0.5246871617
0.5249353261
0.5251833419
0.5254312094
0.5256789288
0.5259265003
0.5261739242
0.5264212007
0.5266683300
0.5269153125
0.5271621483
0.5274088376
0.5276553808
0.5279017779
0.5281480294
0.5283941354
0.5286400961
0.5288859117
0.5291315826
0.5293771089
0.5296224909
0.5298677287
0.5301128227
0.5303577730
0.5306025799
0.5308472437
0.5310917644
0.5313361424
0.5315803779
0.5318244712
0.5320684223
0.5323122316
0.5325558994
0.5327994257
0.5330428108
0.5332860550
0.5335291585
0.5337721215
0.5340149441
0.5342576268
0.5345001695
0.5347425727
0.5349848364
0.5352269610
0.5354689465
0.5357107933
0.5359525016
0.5361940715
0.5364355034
0.5366767973
0.5369179535
0.5371589723
0.5373998538
0.5376405983
0.5378812059
0.5381216769
0.5383620115
0.5386022098
0.5388422722
0.5390821988
0.5393219898
0.5395616455
0.5398011660
0.5400405515
0.5402798022
0.5405189185
0.5407579004
0.5409967481
0.5412354619
0.5414740420
0.5417124886
0.5419508018
0.5421889819
0.5424270291
0.5426649436
0.5429027256
0.5431403752
0.5433778928
0.5436152784
0.5438525323
0.5440896547
0.5443266457
0.5445635057
0.5448002347
0.5450368329
0.5452733007
0.5455096381
0.5457458453
0.5459819226
0.5462178701
0.5464536881
0.5466893767
0.5469249361
0.5471603665
0.5473956682
0.5476308412
0.5478658858
0.5481008022
0.5483355905
0.5485702510
0.5488047839
0.5490391893
0.5492734674
0.5495076184
0.5497416425
0.5499755399
0.5502093107
0.5504429552
0.5506764735
0.5509098659
0.5511431325
0.5513762734
0.5516092890
0.5518421792
0.5520749445
0.5523075848
0.5525401005
0.5527724916
0.5530047584
0.5532369010
0.5534689197
0.5537008146
0.5539325858
0.5541642336
0.5543957582
0.5546271597
0.5548584382
0.5550895941
0.5553206274
0.5555515383
0.5557823270
0.5560129937
0.5562435386
0.5564739618
0.5567042635
0.5569344438
0.5571645030
0.5573944413
0.5576242587
0.5578539555
0.5580835318
0.5583129878
0.5585423237
0.5587715397
0.5590006359
0.5592296124
0.5594584695
0.5596872074
0.5599158262
0.5601443260
0.5603727070
0.5606009695
0.5608291135
0.5610571392
0.5612850469
0.5615128366
0.5617405086
0.5619680629
0.5621954998
0.5624228194
0.5626500220
0.5628771075
0.5631040763
0.5633309285
0.5635576642
0.5637842836
0.5640107869
0.5642371742
0.5644634457
0.5646896016
0.5649156419
0.5651415670
0.5653673768
0.5655930716
0.5658186516
0.5660441169
0.5662694677
0.5664947041
0.5667198262
0.5669448343
0.5671697285
0.5673945089
0.5676191758
0.5678437292
0.5680681693
0.5682924963
0.5685167103
0.5687408115
0.5689648000
0.5691886760
0.5694124396
0.5696360911
0.5698596305
0.5700830580
0.5703063737
0.5705295779
0.5707526706
0.5709756520
0.5711985222
0.5714212815
0.5716439299
0.5718664676
0.5720888948
0.5723112115
0.5725334181
0.5727555145
0.5729775010
0.5731993776
0.5734211446
0.5736428021
0.5738643503
0.5740857892
0.5743071190
0.5745283400
0.5747494521
0.5749704556
0.5751913506
0.5754121373
0.5756328158
0.5758533862
0.5760738486
0.5762942034
0.5765144505
0.5767345901
0.5769546223
0.5771745474
0.5773943654
0.5776140765
0.5778336808
0.5780531784
0.5782725696
0.5784918544
0.5787110330
0.5789301055
0.5791490721
0.5793679328
0.5795866880
0.5798053376
0.5800238818
0.5802423207
0.5804606546
0.5806788835
0.5808970075
0.5811150269
0.5813329417
0.5815507520
0.5817684581
0.5819860600
0.5822035579
0.5824209519
0.5826382422
0.5828554288
0.5830725120
0.5832894918
0.5835063684
0.5837231419
0.5839398125
0.5841563802
0.5843728453
0.5845892078
0.5848054679
0.5850216257
0.5852376814
0.5854536350
0.5856694867
0.5858852367
0.5861008850
0.5863164318
0.5865318773
0.5867472215
0.5869624646
0.5871776067
0.5873926479
0.5876075884
0.5878224283
0.5880371677
0.5882518068
0.5884663456
0.5886807844
0.5888951232
0.5891093621
0.5893235014
0.5895375410
0.5897514812
0.5899653220
0.5901790636
0.5903927062
0.5906062497
0.5908196945
0.5910330405
0.5912462879
0.5914594369
0.5916724875
0.5918854399
0.5920982942
0.5923110505
0.5925237089
0.5927362697
0.5929487328
0.5931610984
0.5933733666
0.5935855377
0.5937976115
0.5940095884
0.5942214684
0.5944332517
0.5946449382
0.5948565283
0.5950680220
0.5952794193
0.5954907205
0.5957019257
0.5959130349
0.5961240483
0.5963349660
0.5965457882
0.5967565148
0.5969671462
0.5971776823
0.5973881233
0.5975984693
0.5978087204
0.5980188768
0.5982289385
0.5984389057
0.5986487785
0.5988585570
0.5990682413
0.5992778316
0.5994873279
0.5996967303
0.5999060390
0.6001152541
0.6003243758
0.6005334040
0.6007423390
0.6009511807
0.6011599295
0.6013685853
0.6015771483
0.6017856186
0.6019939963
0.6022022815
0.6024104743
0.6026185749
0.6028265833
0.6030344997
0.6032423241
0.6034500567
0.6036576977
0.6038652470
0.6040727048
0.6042800712
0.6044873464
0.6046945304
0.6049016233
0.6051086253
0.6053155364
0.6055223569
0.6057290867
0.6059357260
0.6061422748
0.6063487334
0.6065551018
0.6067613801
0.6069675684
0.6071736668
0.6073796755
0.6075855945
0.6077914240
0.6079971640
0.6082028147
0.6084083761
0.6086138484
0.6088192317
0.6090245260
0.6092297315
0.6094348483
0.6096398765
0.6098448162
0.6100496675
0.6102544305
0.6104591053
0.6106636920
0.6108681907
0.6110726015
0.6112769245
0.6114811599
0.6116853076
0.6118893679
0.6120933408
0.6122972264
0.6125010249
0.6127047362
0.6129083606
0.6131118981
0.6133153489
0.6135187130
0.6137219905
0.6139251815
0.6141282862
0.6143313046
0.6145342368
0.6147370829
0.6149398431
0.6151425174
0.6153451059
0.6155476087
0.6157500260
0.6159523578
0.6161546041
0.6163567652
0.6165588411
0.6167608320
0.6169627378
0.6171645587
0.6173662948
0.6175679462
0.6177695131
0.6179709953
0.6181723932
0.6183737068
0.6185749361
0.6187760813
0.6189771425
0.6191781197
0.6193790131
0.6195798228
0.6197805488
0.6199811912
0.6201817502
0.6203822258
0.6205826181
0.6207829273
0.6209831533
0.6211832964
0.6213833565
0.6215833339
0.6217832285
0.6219830405
0.6221827700
0.6223824170
0.6225819817
0.6227814642
0.6229808644
0.6231801826
0.6233794189
0.6235785732
0.6237776458
0.6239766366
0.6241755458
0.6243743736
0.6245731198
0.6247717848
0.6249703684
0.6251688710
0.6253672924
0.6255656329
0.6257638925
0.6259620712
0.6261601693
0.6263581867
0.6265561237
0.6267539801
0.6269517562
0.6271494521
0.6273470677
0.6275446033
0.6277420588
0.6279394345
0.6281367303
0.6283339464
0.6285310828
0.6287281396
0.6289251170
0.6291220150
0.6293188337
0.6295155731
0.6297122334
0.6299088147
0.6301053170
0.6303017405
0.6304980851
0.6306943511
0.6308905384
0.6310866472
0.6312826776
0.6314786296
0.6316745033
0.6318702989
0.6320660163
0.6322616557
0.6324572172
0.6326527008
0.6328481067
0.6330434348
0.6332386854
0.6334338584
0.6336289540
0.6338239723
0.6340189133
0.6342137771
0.6344085638
0.6346032735
0.6347979062
0.6349924621
0.6351869413
0.6353813437
0.6355756695
0.6357699188
0.6359640917
0.6361581882
0.6363522084
0.6365461524
0.6367400203
0.6369338122
0.6371275281
0.6373211681
0.6375147323
0.6377082208
0.6379016337
0.6380949710
0.6382882329
0.6384814194
0.6386745305
0.6388675664
0.6390605272
0.6392534129
0.6394462236
0.6396389593
0.6398316202
0.6400242064
0.6402167179
0.6404091548
0.6406015172
0.6407938051
0.6409860186
0.6411781579
0.6413702229
0.6415622138
0.6417541307
0.6419459736
0.6421377426
0.6423294377
0.6425210591
0.6427126069
0.6429040810
0.6430954816
0.6432868088
0.6434780626
0.6436692432
0.6438603505
0.6440513847
0.6442423458
0.6444332339
0.6446240492
0.6448147916
0.6450054612
0.6451960582
0.6453865826
0.6455770344
0.6457674138
0.6459577208
0.6461479554
0.6463381179
0.6465282082
0.6467182264
0.6469081726
0.6470980469
0.6472878493
0.6474775799
0.6476672388
0.6478568260
0.6480463417
0.6482357859
0.6484251587
0.6486144601
0.6488036903
0.6489928492
0.6491819371
0.6493709538
0.6495598996
0.6497487745
0.6499375785
0.6501263118
0.6503149743
0.6505035663
0.6506920877
0.6508805386
0.6510689191
0.6512572292
0.6514454691
0.6516336388
0.6518217384
0.6520097679
0.6521977274
0.6523856170
0.6525734368
0.6527611868
0.6529488671
0.6531364778
0.6533240189
0.6535114906
0.6536988928
0.6538862256
0.6540734892
0.6542606835
0.6544478088
0.6546348649
0.6548218520
0.6550087702
0.6551956196
0.6553824001
0.6555691119
0.6557557551
0.6559423296
0.6561288357
0.6563152732
0.6565016424
0.6566879433
0.6568741759
0.6570603404
0.6572464367
0.6574324650
0.6576184253
0.6578043176
0.6579901422
0.6581758989
0.6583615880
0.6585472094
0.6587327632
0.6589182495
0.6591036684
0.6592890199
0.6594743040
0.6596595210
0.6598446707
0.6600297534
0.6602147690
0.6603997176
0.6605845993
0.6607694141
0.6609541622
0.6611388436
0.6613234582
0.6615080064
0.6616924879
0.6618769031
0.6620612518
0.6622455342
0.6624297504
0.6626139003
0.6627979841
0.6629820018
0.6631659536
0.6633498394
0.6635336593
0.6637174134
0.6639011018
0.6640847244
0.6642682815
0.6644517730
0.6646351990
0.6648185595
0.6650018547
0.6651850846
0.6653682493
0.6655513488
0.6657343831
0.6659173524
0.6661002567
0.6662830961
0.6664658707
0.6666485804
0.6668312254
0.6670138057
0.6671963214
0.6673787725
0.6675611592
0.6677434814
0.6679257392
0.6681079328
0.6682900621
0.6684721272
0.6686541282
0.6688360651
0.6690179380
0.6691997470
0.6693814921
0.6695631734
0.6697447910
0.6699263448
0.6701078351
0.6702892617
0.6704706248
0.6706519245
0.6708331608
0.6710143337
0.6711954434
0.6713764899
0.6715574732
0.6717383934
0.6719192506
0.6721000448
0.6722807761
0.6724614445
0.6726420501
0.6728225930
0.6730030733
0.6731834909
0.6733638459
0.6735441385
0.6737243686
0.6739045363
0.6740846417
0.6742646848
0.6744446658
0.6746245845
0.6748044412
0.6749842359
0.6751639685
0.6753436393
0.6755232482
0.6757027953
0.6758822806
0.6760617043
0.6762410663
0.6764203668
0.6765996057
0.6767787832
0.6769578993
0.6771369541
0.6773159475
0.6774948798
0.6776737508
0.6778525608
0.6780313097
0.6782099976
0.6783886245
0.6785671906
0.6787456958
0.6789241402
0.6791025240
0.6792808470
0.6794591095
0.6796373114
0.6798154528
0.6799935337
0.6801715543
0.6803495146
0.6805274145
0.6807052543
0.6808830339
0.6810607534
0.6812384128
0.6814160122
0.6815935517
0.6817710313
0.6819484511
0.6821258110
0.6823031113
0.6824803519
0.6826575329
0.6828346543
0.6830117162
0.6831887186
0.6833656617
0.6835425454
0.6837193698
0.6838961350
0.6840728410
0.6842494879
0.6844260757
0.6846026045
0.6847790743
0.6849554852
0.6851318372
0.6853081304
0.6854843649
0.6856605407
0.6858366578
0.6860127163
0.6861887163
0.6863646578
0.6865405409
0.6867163655
0.6868921319
0.6870678399
0.6872434898
0.6874190814
0.6875946150
0.6877700904
0.6879455079
0.6881208674
0.6882961689
0.6884714126
0.6886465985
0.6888217267
0.6889967971
0.6891718099
0.6893467651
0.6895216627
0.6896965028
0.6898712855
0.6900460107
0.6902206787
0.6903952893
0.6905698427
0.6907443389
0.6909187779
0.6910931599
0.6912674848
0.6914417527
0.6916159637
0.6917901177
0.6919642150
0.6921382554
0.6923122392
0.6924861662
0.6926600366
0.6928338504
0.6930076076
0.6931813084
0.6933549527
0.6935285407
0.6937020723
0.6938755476
0.6940489666
0.6942223295
0.6943956363
0.6945688869
0.6947420815
0.6949152201
0.6950883028
0.6952613295
0.6954343004
0.6956072156
0.6957800749
0.6959528786
0.6961256266
0.6962983190
0.6964709559
0.6966435372
0.6968160631
0.6969885336
0.6971609487
0.6973333085
0.6975056131
0.6976778624
0.6978500565
0.6980221956
0.6981942795
0.6983663085
0.6985382824
0.6987102015
0.6988820656
0.6990538749
0.6992256295
0.6993973292
0.6995689743
0.6997405648
0.6999121006
0.7000835819
0.7002550087
0.7004263811
0.7005976990
0.7007689625
0.7009401718
