OCIO/LUTs/tony_log_to_rational.spi1d
Version 1
From 0.0000000 1.0000000
Length 4096
Components 1
{
0.0001220554
0.0001224900
0.0001229261
0.0001233638
0.0001238030
0.0001242438
0.0001246862
0.0001251301
0.0001255757
0.0001260228
0.0001264715
0.0001269218
0.0001273737
0.0001278272
0.0001282823
0.0001287390
0.0001291974
0.0001296574
0.0001301191
0.0001305823
0.0001310473
0.0001315139
0.0001319821
0.0001324520
0.0001329236
0.0001333969
0.0001338718
0.0001343485
0.0001348268
0.0001353069
0.0001357886
0.0001362721
0.0001367573
0.0001372442
0.0001377328
0.0001382232
0.0001387154
0.0001392093
0.0001397049
0.0001402023
0.0001407015
0.0001412024
0.0001417052
0.0001422097
0.0001427160
0.0001432242
0.0001437341
0.0001442459
0.0001447594
0.0001452748
0.0001457921
0.0001463112
0.0001468321
0.0001473549
0.0001478795
0.0001484060
0.0001489344
0.0001494647
0.0001499968
0.0001505309
0.0001510668
0.0001516047
0.0001521444
0.0001526861
0.0001532297
0.0001537753
0.0001543228
0.0001548723
0.0001554237
0.0001559770
0.0001565324
0.0001570897
0.0001576490
0.0001582103
0.0001587735
0.0001593388
0.0001599061
0.0001604755
0.0001610468
0.0001616202
0.0001621956
0.0001627731
0.0001633526
0.0001639342
0.0001645179
0.0001651036
0.0001656914
0.0001662813
0.0001668734
0.0001674675
0.0001680637
0.0001686621
0.0001692626
0.0001698652
0.0001704700
0.0001710769
0.0001716860
0.0001722973
0.0001729107
0.0001735263
0.0001741441
0.0001747641
0.0001753863
0.0001760108
0.0001766374
0.0001772663
0.0001778974
0.0001785308
0.0001791664
0.0001798043
0.0001804444
0.0001810869
0.0001817316
0.0001823786
0.0001830279
0.0001836795
0.0001843335
0.0001849898
0.0001856484
0.0001863093
0.0001869726
0.0001876383
0.0001883064
0.0001889768
0.0001896496
0.0001903248
0.0001910024
0.0001916824
0.0001923648
0.0001930497
0.0001937370
0.0001944268
0.0001951190
0.0001958136
0.0001965108
0.0001972104
0.0001979125
0.0001986171
0.0001993242
0.0002000339
0.0002007460
0.0002014607
0.0002021780
0.0002028978
0.0002036201
0.0002043450
0.0002050726
0.0002058027
0.0002065354
0.0002072707
0.0002080086
0.0002087491
0.0002094923
0.0002102381
0.0002109866
0.0002117378
0.0002124916
0.0002132481
0.0002140073
0.0002147692
0.0002155338
0.0002163011
0.0002170712
0.0002178440
0.0002186196
0.0002193979
0.0002201790
0.0002209628
0.0002217495
0.0002225390
0.0002233312
0.0002241263
0.0002249242
0.0002257250
0.0002265286
0.0002273351
0.0002281444
0.0002289566
0.0002297717
0.0002305898
0.0002314107
0.0002322345
0.0002330613
0.0002338910
0.0002347237
0.0002355593
0.0002363979
0.0002372395
0.0002380841
0.0002389317
0.0002397823
0.0002406360
0.0002414927
0.0002423524
0.0002432152
0.0002440810
0.0002449500
0.0002458220
0.0002466971
0.0002475754
0.0002484568
0.0002493413
0.0002502290
0.0002511198
0.0002520138
0.0002529110
0.0002538113
0.0002547149
0.0002556217
0.0002565317
0.0002574450
0.0002583615
0.0002592812
0.0002602043
0.0002611306
0.0002620602
0.0002629931
0.0002639294
0.0002648690
0.0002658119
0.0002667582
0.0002677078
0.0002686609
0.0002696173
0.0002705771
0.0002715404
0.0002725070
0.0002734772
0.0002744507
0.0002754278
0.0002764083
0.0002773923
0.0002783798
0.0002793708
0.0002803653
0.0002813634
0.0002823650
0.0002833702
0.0002843790
0.0002853914
0.0002864073
0.0002874269
0.0002884501
0.0002894770
0.0002905075
0.0002915416
0.0002925795
0.0002936210
0.0002946663
0.0002957153
0.0002967680
0.0002978244
0.0002988847
0.0002999486
0.0003010164
0.0003020880
0.0003031634
0.0003042426
0.0003053256
0.0003064125
0.0003075033
0.0003085980
0.0003096965
0.0003107990
0.0003119054
0.0003130157
0.0003141300
0.0003152482
0.0003163705
0.0003174967
0.0003186269
0.0003197611
0.0003208994
0.0003220417
0.0003231881
0.0003243386
0.0003254932
0.0003266519
0.0003278147
0.0003289816
0.0003301527
0.0003313280
0.0003325074
0.0003336910
0.0003348789
0.0003360710
0.0003372673
0.0003384679
0.0003396727
0.0003408819
0.0003420953
0.0003433130
0.0003445351
0.0003457616
0.0003469924
0.0003482276
0.0003494671
0.0003507111
0.0003519596
0.0003532124
0.0003544697
0.0003557315
0.0003569978
0.0003582686
0.0003595439
0.0003608237
0.0003621081
0.0003633971
0.0003646907
0.0003659888
0.0003672916
0.0003685990
0.0003699111
0.0003712278
0.0003725493
0.0003738754
0.0003752062
0.0003765418
0.0003778821
0.0003792272
0.0003805771
0.0003819318
0.0003832913
0.0003846557
0.0003860249
0.0003873989
0.0003887779
0.0003901618
0.0003915506
0.0003929443
0.0003943430
0.0003957467
0.0003971553
0.0003985690
0.0003999877
0.0004014115
0.0004028403
0.0004042742
0.0004057132
0.0004071573
0.0004086066
0.0004100610
0.0004115206
0.0004129854
0.0004144554
0.0004159306
0.0004174111
0.0004188969
0.0004203879
0.0004218842
0.0004233859
0.0004248929
0.0004264053
0.0004279230
0.0004294462
0.0004309747
0.0004325087
0.0004340482
0.0004355931
0.0004371436
0.0004386995
0.0004402610
0.0004418281
0.0004434007
0.0004449789
0.0004465627
0.0004481522
0.0004497473
0.0004513481
0.0004529546
0.0004545668
0.0004561847
0.0004578084
0.0004594379
0.0004610732
0.0004627143
0.0004643612
0.0004660140
0.0004676726
0.0004693372
0.0004710077
0.0004726841
0.0004743665
0.0004760549
0.0004777493
0.0004794497
0.0004811562
0.0004828687
0.0004845873
0.0004863121
0.0004880429
0.0004897800
0.0004915232
0.0004932726
0.0004950282
0.0004967901
0.0004985583
0.0005003327
0.0005021135
0.0005039006
0.0005056940
0.0005074938
0.0005093001
0.0005111127
0.0005129318
0.0005147574
0.0005165895
0.0005184280
0.0005202732
0.0005221248
0.0005239831
0.0005258480
0.0005277195
0.0005295977
0.0005314826
0.0005333741
0.0005352724
0.0005371774
0.0005390893
0.0005410079
0.0005429333
0.0005448656
0.0005468048
0.0005487508
0.0005507038
0.0005526638
0.0005546307
0.0005566046
0.0005585855
0.0005605734
0.0005625685
0.0005645706
0.0005665799
0.0005685963
0.0005706199
0.0005726506
0.0005746886
0.0005767339
0.0005787864
0.0005808462
0.0005829133
0.0005849878
0.0005870697
0.0005891590
0.0005912557
0.0005933599
0.0005954715
0.0005975907
0.0005997174
0.0006018517
0.0006039935
0.0006061430
0.0006083001
0.0006104649
0.0006126374
0.0006148176
0.0006170056
0.0006192013
0.0006214049
0.0006236163
0.0006258355
0.0006280627
0.0006302978
0.0006325408
0.0006347918
0.0006370508
0.0006393178
0.0006415929
0.0006438761
0.0006461674
0.0006484669
0.0006507745
0.0006530904
0.0006554145
0.0006577468
0.0006600875
0.0006624364
0.0006647937
0.0006671594
0.0006695336
0.0006719161
0.0006743072
0.0006767067
0.0006791148
0.0006815314
0.0006839566
0.0006863904
0.0006888330
0.0006912841
0.0006937440
0.0006962127
0.0006986901
0.0007011764
0.0007036714
0.0007061754
0.0007086883
0.0007112100
0.0007137408
0.0007162806
0.0007188293
0.0007213872
0.0007239541
0.0007265302
0.0007291155
0.0007317099
0.0007343135
0.0007369264
0.0007395486
0.0007421802
0.0007448210
0.0007474713
0.0007501310
0.0007528002
0.0007554788
0.0007581670
0.0007608647
0.0007635720
0.0007662889
0.0007690155
0.0007717518
0.0007744979
0.0007772536
0.0007800192
0.0007827946
0.0007855799
0.0007883751
0.0007911802
0.0007939953
0.0007968204
0.0007996556
0.0008025008
0.0008053562
0.0008082217
0.0008110973
0.0008139833
0.0008168794
0.0008197859
0.0008227027
0.0008256298
0.0008285674
0.0008315154
0.0008344739
0.0008374429
0.0008404225
0.0008434127
0.0008464134
0.0008494249
0.0008524471
0.0008554800
0.0008585236
0.0008615782
0.0008646435
0.0008677198
0.0008708070
0.0008739051
0.0008770143
0.0008801346
0.0008832659
0.0008864083
0.0008895620
0.0008927268
0.0008959029
0.0008990903
0.0009022890
0.0009054990
0.0009087205
0.0009119535
0.0009151979
0.0009184539
0.0009217214
0.0009250005
0.0009282913
0.0009315938
0.0009349081
0.0009382341
0.0009415719
0.0009449216
0.0009482832
0.0009516568
0.0009550423
0.0009584399
0.0009618495
0.0009652713
0.0009687052
0.0009721514
0.0009756098
0.0009790804
0.0009825634
0.0009860588
0.0009895666
0.0009930869
0.0009966197
0.0010001650
0.0010037230
0.0010072935
0.0010108768
0.0010144728
0.0010180816
0.0010217032
0.0010253377
0.0010289851
0.0010326455
0.0010363188
0.0010400052
0.0010437047
0.0010474174
0.0010511433
0.0010548824
0.0010586347
0.0010624005
0.0010661796
0.0010699721
0.0010737781
0.0010775976
0.0010814307
0.0010852774
0.0010891378
0.0010930119
0.0010968998
0.0011008014
0.0011047170
0.0011086464
0.0011125899
0.0011165473
0.0011205188
0.0011245044
0.0011285041
0.0011325181
0.0011365463
0.0011405889
0.0011446458
0.0011487171
0.0011528029
0.0011569032
0.0011610180
0.0011651475
0.0011692917
0.0011734505
0.0011776242
0.0011818127
0.0011860160
0.0011902343
0.0011944676
0.0011987159
0.0012029793
0.0012072578
0.0012115516
0.0012158606
0.0012201849
0.0012245246
0.0012288796
0.0012332502
0.0012376363
0.0012420379
0.0012464552
0.0012508882
0.0012553369
0.0012598015
0.0012642819
0.0012687782
0.0012732904
0.0012778187
0.0012823631
0.0012869236
0.0012915004
0.0012960933
0.0013007026
0.0013053283
0.0013099704
0.0013146289
0.0013193041
0.0013239958
0.0013287042
0.0013334293
0.0013381712
0.0013429299
0.0013477055
0.0013524981
0.0013573077
0.0013621344
0.0013669783
0.0013718393
0.0013767176
0.0013816132
0.0013865262
0.0013914566
0.0013964046
0.0014013701
0.0014063533
0.0014113541
0.0014163727
0.0014214092
0.0014264635
0.0014315357
0.0014366260
0.0014417344
0.0014468608
0.0014520055
0.0014571685
0.0014623497
0.0014675494
0.0014727676
0.0014780042
0.0014832595
0.0014885334
0.0014938260
0.0014991375
0.0015044678
0.0015098170
0.0015151852
0.0015205724
0.0015259788
0.0015314044
0.0015368492
0.0015423134
0.0015477970
0.0015533000
0.0015588225
0.0015643647
0.0015699266
0.0015755081
0.0015811095
0.0015867308
0.0015923721
0.0015980333
0.0016037147
0.0016094162
0.0016151379
0.0016208800
0.0016266424
0.0016324253
0.0016382288
0.0016440528
0.0016498975
0.0016557629
0.0016616492
0.0016675563
0.0016734844
0.0016794336
0.0016854038
0.0016913953
0.0016974080
0.0017034420
0.0017094975
0.0017155744
0.0017216730
0.0017277931
0.0017339350
0.0017400987
0.0017462842
0.0017524917
0.0017587212
0.0017649728
0.0017712466
0.0017775427
0.0017838611
0.0017902019
0.0017965653
0.0018029512
0.0018093597
0.0018157910
0.0018222451
0.0018287221
0.0018352221
0.0018417452
0.0018482914
0.0018548608
0.0018614535
0.0018680697
0.0018747092
0.0018813724
0.0018880592
0.0018947697
0.0019015040
0.0019082622
0.0019150443
0.0019218506
0.0019286809
0.0019355355
0.0019424144
0.0019493177
0.0019562455
0.0019631979
0.0019701749
0.0019771767
0.0019842033
0.0019912549
0.0019983314
0.0020054330
0.0020125599
0.0020197120
0.0020268894
0.0020340924
0.0020413208
0.0020485749
0.0020558547
0.0020631604
0.0020704919
0.0020778495
0.0020852331
0.0020926430
0.0021000790
0.0021075415
0.0021150304
0.0021225459
0.0021300881
0.0021376569
0.0021452526
0.0021528753
0.0021605249
0.0021682017
0.0021759057
0.0021836371
0.0021913958
0.0021991820
0.0022069959
0.0022148374
0.0022227067
0.0022306040
0.0022385292
0.0022464825
0.0022544641
0.0022624739
0.0022705121
0.0022785788
0.0022866741
0.0022947981
0.0023029509
0.0023111326
0.0023193432
0.0023275830
0.0023358520
0.0023441503
0.0023524780
0.0023608353
0.0023692221
0.0023776387
0.0023860851
0.0023945614
0.0024030677
0.0024116043
0.0024201710
0.0024287681
0.0024373957
0.0024460539
0.0024547427
0.0024634623
0.0024722129
0.0024809944
0.0024898070
0.0024986509
0.0025075261
0.0025164327
0.0025253709
0.0025343408
0.0025433424
0.0025523760
0.0025614415
0.0025705392
0.0025796691
0.0025888313
0.0025980260
0.0026072532
0.0026165132
0.0026258059
0.0026351316
0.0026444903
0.0026538821
0.0026633072
0.0026727657
0.0026822577
0.0026917833
0.0027013427
0.0027109359
0.0027205631
0.0027302243
0.0027399198
0.0027496497
0.0027594139
0.0027692128
0.0027790464
0.0027889147
0.0027988181
0.0028087564
0.0028187300
0.0028287389
0.0028387833
0.0028488632
0.0028589787
0.0028691302
0.0028793175
0.0028895409
0.0028998005
0.0029100964
0.0029204288
0.0029307978
0.0029412034
0.0029516459
0.0029621254
0.0029726419
0.0029831957
0.0029937868
0.0030044155
0.0030150817
0.0030257857
0.0030365276
0.0030473075
0.0030581255
0.0030689819
0.0030798766
0.0030908100
0.0031017820
0.0031127928
0.0031238426
0.0031349315
0.0031460596
0.0031572271
0.0031684342
0.0031796809
0.0031909673
0.0032022938
0.0032136602
0.0032250669
0.0032365140
0.0032480016
0.0032595297
0.0032710987
0.0032827086
0.0032943596
0.0033060518
0.0033177853
0.0033295604
0.0033413771
0.0033532356
0.0033651360
0.0033770786
0.0033890633
0.0034010905
0.0034131602
0.0034252726
0.0034374278
0.0034496260
0.0034618673
0.0034741519
0.0034864800
0.0034988517
0.0035112671
0.0035237264
0.0035362297
0.0035487773
0.0035613692
0.0035740057
0.0035866868
0.0035994128
0.0036121837
0.0036249998
0.0036378612
0.0036507680
0.0036637205
0.0036767188
0.0036897630
0.0037028533
0.0037159899
0.0037291729
0.0037424026
0.0037556789
0.0037690022
0.0037823726
0.0037957902
0.0038092553
0.0038227679
0.0038363283
0.0038499365
0.0038635929
0.0038772975
0.0038910506
0.0039048522
0.0039187026
0.0039326020
0.0039465504
0.0039605481
0.0039745953
0.0039886921
0.0040028386
0.0040170352
0.0040312819
0.0040455789
0.0040599264
0.0040743246
0.0040887737
0.0041032738
0.0041178250
0.0041324277
0.0041470820
0.0041617880
0.0041765459
0.0041913559
0.0042062182
0.0042211331
0.0042361005
0.0042511208
0.0042661942
0.0042813207
0.0042965007
0.0043117343
0.0043270216
0.0043423629
0.0043577583
0.0043732081
0.0043887125
0.0044042715
0.0044198855
0.0044355546
0.0044512789
0.0044670588
0.0044828944
0.0044987858
0.0045147333
0.0045307371
0.0045467974
0.0045629143
0.0045790881
0.0045953190
0.0046116071
0.0046279527
0.0046443559
0.0046608171
0.0046773363
0.0046939137
0.0047105497
0.0047272443
0.0047439978
0.0047608104
0.0047776823
0.0047946137
0.0048116048
0.0048286559
0.0048457670
0.0048629385
0.0048801706
0.0048974634
0.0049148172
0.0049322322
0.0049497086
0.0049672466
0.0049848464
0.0050025083
0.0050202324
0.0050380190
0.0050558683
0.0050737805
0.0050917559
0.0051097946
0.0051278969
0.0051460630
0.0051642931
0.0051825875
0.0052009463
0.0052193698
0.0052378583
0.0052564119
0.0052750308
0.0052937154
0.0053124658
0.0053312822
0.0053501649
0.0053691142
0.0053881302
0.0054072132
0.0054263634
0.0054455810
0.0054648664
0.0054842196
0.0055036411
0.0055231309
0.0055426893
0.0055623166
0.0055820131
0.0056017789
0.0056216143
0.0056415195
0.0056614948
0.0056815404
0.0057016566
0.0057218436
0.0057421017
0.0057624310
0.0057828320
0.0058033047
0.0058238495
0.0058444666
0.0058651562
0.0058859187
0.0059067542
0.0059276630
0.0059486454
0.0059697017
0.0059908320
0.0060120366
0.0060333159
0.0060546700
0.0060760992
0.0060976038
0.0061191841
0.0061408402
0.0061625726
0.0061843813
0.0062062668
0.0062282292
0.0062502688
0.0062723860
0.0062945809
0.0063168538
0.0063392051
0.0063616349
0.0063841436
0.0064067314
0.0064293986
0.0064521455
0.0064749724
0.0064978795
0.0065208670
0.0065439354
0.0065670849
0.0065903156
0.0066136281
0.0066370224
0.0066604989
0.0066840579
0.0067076997
0.0067314246
0.0067552327
0.0067791246
0.0068031003
0.0068271602
0.0068513047
0.0068755339
0.0068998483
0.0069242480
0.0069487334
0.0069733048
0.0069979624
0.0070227067
0.0070475378
0.0070724560
0.0070974618
0.0071225553
0.0071477369
0.0071730069
0.0071983656
0.0072238133
0.0072493502
0.0072749768
0.0073006934
0.0073265001
0.0073523974
0.0073783856
0.0074044649
0.0074306358
0.0074568984
0.0074832532
0.0075097004
0.0075362403
0.0075628734
0.0075895998
0.0076164200
0.0076433342
0.0076703427
0.0076974460
0.0077246443
0.0077519380
0.0077793273
0.0078068127
0.0078343944
0.0078620727
0.0078898481
0.0079177208
0.0079456912
0.0079737596
0.0080019264
0.0080301918
0.0080585563
0.0080870202
0.0081155837
0.0081442474
0.0081730114
0.0082018762
0.0082308421
0.0082599094
0.0082890785
0.0083183498
0.0083477236
0.0083772002
0.0084067800
0.0084364633
0.0084662506
0.0084961422
0.0085261384
0.0085562395
0.0085864461
0.0086167583
0.0086471766
0.0086777014
0.0087083329
0.0087390716
0.0087699179
0.0088008721
0.0088319346
0.0088631057
0.0088943858
0.0089257754
0.0089572747
0.0089888842
0.0090206042
0.0090524351
0.0090843774
0.0091164313
0.0091485972
0.0091808756
0.0092132668
0.0092457712
0.0092783893
0.0093111213
0.0093439677
0.0093769289
0.0094100052
0.0094431971
0.0094765050
0.0095099292
0.0095434702
0.0095771283
0.0096109040
0.0096447976
0.0096788096
0.0097129404
0.0097471903
0.0097815598
0.0098160493
0.0098506592
0.0098853899
0.0099202419
0.0099552155
0.0099903111
0.0100255292
0.0100608702
0.0100963345
0.0101319225
0.0101676347
0.0102034715
0.0102394332
0.0102755204
0.0103117335
0.0103480729
0.0103845389
0.0104211321
0.0104578529
0.0104947018
0.0105316790
0.0105687852
0.0106060207
0.0106433860
0.0106808815
0.0107185077
0.0107562649
0.0107941538
0.0108321746
0.0108703279
0.0109086140
0.0109470336
0.0109855869
0.0110242745
0.0110630968
0.0111020543
0.0111411475
0.0111803767
0.0112197425
0.0112592454
0.0112988857
0.0113386640
0.0113785807
0.0114186363
0.0114588313
0.0114991662
0.0115396413
0.0115802573
0.0116210145
0.0116619135
0.0117029547
0.0117441387
0.0117854658
0.0118269366
0.0118685516
0.0119103113
0.0119522161
0.0119942666
0.0120364632
0.0120788064
0.0121212968
0.0121639348
0.0122067210
0.0122496557
0.0122927397
0.0123359732
0.0123793569
0.0124228912
0.0124665768
0.0125104139
0.0125544033
0.0125985454
0.0126428407
0.0126872897
0.0127318930
0.0127766511
0.0128215645
0.0128666337
0.0129118592
0.0129572416
0.0130027815
0.0130484792
0.0130943355
0.0131403507
0.0131865255
0.0132328604
0.0132793559
0.0133260126
0.0133728309
0.0134198115
0.0134669550
0.0135142617
0.0135617324
0.0136093675
0.0136571676
0.0137051332
0.0137532650
0.0138015634
0.0138500291
0.0138986625
0.0139474644
0.0139964351
0.0140455753
0.0140948856
0.0141443666
0.0141940187
0.0142438426
0.0142938389
0.0143440081
0.0143943508
0.0144448676
0.0144955591
0.0145464259
0.0145974685
0.0146486875
0.0147000836
0.0147516574
0.0148034093
0.0148553401
0.0149074502
0.0149597404
0.0150122113
0.0150648633
0.0151176972
0.0151707135
0.0152239129
0.0152772959
0.0153308632
0.0153846154
0.0154385531
0.0154926769
0.0155469875
0.0156014854
0.0156561714
0.0157110459
0.0157661098
0.0158213635
0.0158768077
0.0159324431
0.0159882703
0.0160442899
0.0161005025
0.0161569089
0.0162135096
0.0162703054
0.0163272968
0.0163844845
0.0164418691
0.0164994514
0.0165572319
0.0166152114
0.0166733904
0.0167317697
0.0167903499
0.0168491317
0.0169081158
0.0169673028
0.0170266933
0.0170862882
0.0171460880
0.0172060934
0.0172663051
0.0173267238
0.0173873502
0.0174481850
0.0175092288
0.0175704824
0.0176319464
0.0176936215
0.0177555085
0.0178176080
0.0178799208
0.0179424474
0.0180051888
0.0180681455
0.0181313183
0.0181947078
0.0182583149
0.0183221401
0.0183861843
0.0184504482
0.0185149324
0.0185796378
0.0186445650
0.0187097147
0.0187750877
0.0188406848
0.0189065067
0.0189725540
0.0190388276
0.0191053282
0.0191720565
0.0192390134
0.0193061994
0.0193736155
0.0194412623
0.0195091406
0.0195772511
0.0196455947
0.0197141721
0.0197829840
0.0198520313
0.0199213146
0.0199908348
0.0200605927
0.0201305890
0.0202008244
0.0202712999
0.0203420161
0.0204129739
0.0204841740
0.0205556172
0.0206273044
0.0206992363
0.0207714137
0.0208438375
0.0209165083
0.0209894271
0.0210625947
0.0211360118
0.0212096792
0.0212835979
0.0213577685
0.0214321919
0.0215068690
0.0215818005
0.0216569874
0.0217324303
0.0218081302
0.0218840879
0.0219603042
0.0220367800
0.0221135160
0.0221905132
0.0222677724
0.0223452945
0.0224230802
0.0225011305
0.0225794462
0.0226580281
0.0227368772
0.0228159943
0.0228953802
0.0229750358
0.0230549620
0.0231351597
0.0232156297
0.0232963730
0.0233773903
0.0234586827
0.0235402509
0.0236220959
0.0237042185
0.0237866196
0.0238693002
0.0239522612
0.0240355034
0.0241190277
0.0242028351
0.0242869264
0.0243713027
0.0244559647
0.0245409134
0.0246261497
0.0247116746
0.0247974890
0.0248835937
0.0249699898
0.0250566781
0.0251436597
0.0252309353
0.0253185061
0.0254063728
0.0254945365
0.0255829982
0.0256717587
0.0257608190
0.0258501800
0.0259398428
0.0260298083
0.0261200775
0.0262106512
0.0263015306
0.0263927165
0.0264842100
0.0265760120
0.0266681234
0.0267605454
0.0268532788
0.0269463246
0.0270396839
0.0271333577
0.0272273469
0.0273216525
0.0274162755
0.0275112170
0.0276064779
0.0277020593
0.0277979622
0.0278941875
0.0279907364
0.0280876097
0.0281848086
0.0282823341
0.0283801872
0.0284783689
0.0285768803
0.0286757225
0.0287748963
0.0288744030
0.0289742435
0.0290744188
0.0291749302
0.0292757785
0.0293769648
0.0294784903
0.0295803560
0.0296825629
0.0297851121
0.0298880046
0.0299912417
0.0300948242
0.0301987534
0.0303030303
0.0304076560
0.0305126315
0.0306179580
0.0307236365
0.0308296682
0.0309360541
0.0310427954
0.0311498932
0.0312573485
0.0313651625
0.0314733363
0.0315818710
0.0316907678
0.0318000276
0.0319096518
0.0320196414
0.0321299975
0.0322407213
0.0323518139
0.0324632765
0.0325751102
0.0326873161
0.0327998954
0.0329128492
0.0330261788
0.0331398852
0.0332539696
0.0333684332
0.0334832772
0.0335985026
0.0337141108
0.0338301028
0.0339464799
0.0340632432
0.0341803939
0.0342979333
0.0344158624
0.0345341825
0.0346528947
0.0347720004
0.0348915006
0.0350113967
0.0351316897
0.0352523809
0.0353734716
0.0354949628
0.0356168560
0.0357391522
0.0358618528
0.0359849588
0.0361084717
0.0362323925
0.0363567226
0.0364814632
0.0366066155
0.0367321808
0.0368581603
0.0369845553
0.0371113670
0.0372385967
0.0373662457
0.0374943152
0.0376228065
0.0377517209
0.0378810595
0.0380108239
0.0381410151
0.0382716344
0.0384026833
0.0385341629
0.0386660745
0.0387984195
0.0389311992
0.0390644147
0.0391980676
0.0393321589
0.0394666902
0.0396016626
0.0397370775
0.0398729363
0.0400092402
0.0401459905
0.0402831886
0.0404208359
0.0405589337
0.0406974832
0.0408364859
0.0409759430
0.0411158560
0.0412562262
0.0413970549
0.0415383435
0.0416800934
0.0418223058
0.0419649823
0.0421081241
0.0422517326
0.0423958092
0.0425403553
0.0426853723
0.0428308615
0.0429768243
0.0431232621
0.0432701763
0.0434175684
0.0435654396
0.0437137914
0.0438626253
0.0440119426
0.0441617447
0.0443120330
0.0444628090
0.0446140741
0.0447658297
0.0449180772
0.0450708181
0.0452240537
0.0453777856
0.0455320152
0.0456867438
0.0458419731
0.0459977043
0.0461539389
0.0463106785
0.0464679244
0.0466256782
0.0467839412
0.0469427150
0.0471020010
0.0472618006
0.0474221155
0.0475829469
0.0477442965
0.0479061657
0.0480685560
0.0482314689
0.0483949058
0.0485588683
0.0487233578
0.0488883760
0.0490539242
0.0492200039
0.0493866168
0.0495537643
0.0497214478
0.0498896690
0.0500584294
0.0502277305
0.0503975737
0.0505679607
0.0507388930
0.0509103721
0.0510823995
0.0512549769
0.0514281056
0.0516017874
0.0517760237
0.0519508161
0.0521261661
0.0523020754
0.0524785454
0.0526555777
0.0528331740
0.0530113357
0.0531900645
0.0533693619
0.0535492295
0.0537296689
0.0539106817
0.0540922695
0.0542744338
0.0544571762
0.0546404984
0.0548244020
0.0550088885
0.0551939595
0.0553796167
0.0555658617
0.0557526961
0.0559401214
0.0561281394
0.0563167517
0.0565059597
0.0566957653
0.0568861700
0.0570771755
0.0572687834
0.0574609952
0.0576538128
0.0578472377
0.0580412715
0.0582359159
0.0584311726
0.0586270432
0.0588235294
0.0590206328
0.0592183551
0.0594166980
0.0596156630
0.0598152520
0.0600154665
0.0602163083
0.0604177790
0.0606198803
0.0608226138
0.0610259814
0.0612299845
0.0614346251
0.0616399046
0.0618458249
0.0620523876
0.0622595944
0.0624674471
0.0626759473
0.0628850967
0.0630948971
0.0633053502
0.0635164576
0.0637282211
0.0639406425
0.0641537233
0.0643674655
0.0645818706
0.0647969404
0.0650126767
0.0652290811
0.0654461555
0.0656639015
0.0658823209
0.0661014155
0.0663211869
0.0665416369
0.0667627673
0.0669845799
0.0672070763
0.0674302584
0.0676541278
0.0678786864
0.0681039359
0.0683298781
0.0685565147
0.0687838476
0.0690118784
0.0692406090
0.0694700411
0.0697001765
0.0699310170
0.0701625643
0.0703948203
0.0706277868
0.0708614654
0.0710958581
0.0713309665
0.0715667925
0.0718033379
0.0720406045
0.0722785940
0.0725173083
0.0727567492
0.0729969185
0.0732378179
0.0734794493
0.0737218145
0.0739649154
0.0742087536
0.0744533310
0.0746986495
0.0749447109
0.0751915169
0.0754390694
0.0756873702
0.0759364212
0.0761862241
0.0764367808
0.0766880931
0.0769401629
0.0771929919
0.0774465820
0.0777009351
0.0779560529
